X:7114
T:The Mug of Brown Ale
O:england
M:6/8
L:1/8
Q:180
C:Trad Irish
R:jig
K:A Dor
z|eAA fAA|gfg age|dBA GFG|BABdBd|
eAA fAA|gfg age|dBd gdB|BAG A2:|
g|efg aba|aba age|def g2 f|gba ged|
efg aba|aba age|dBd gdB|BAG A2:|
